Origami/48x48/apps/litecoin-qt.svg

<svg width="48" height="48" version="1.1" viewBox="0 0 48 48" xmlns="http://www.w3.org/2000/svg">
 <path d="m24 5.0000003a20 20 0 0 0 -20 20 20 20 0 0 0 20 20 20 20 0 0 0 19.999997 -20 20 20 0 0 0 -19.999997 -20z" style="opacity:.2"/>
 <path d="m24 4.0000003a20 20 0 0 0 -20 20 20 20 0 0 0 20 20 20 20 0 0 0 19.999997 -20 20 20 0 0 0 -19.999997 -20z" style="fill:#4f4f4f"/>
 <path d="M 24,3.9999999 A 20.000357,20.015369 0 0 0 3.9999999,24.015704 20.000357,20.015369 0 0 0 4.0153459,24.305827 20.000357,20.015369 0 0 1 24,4.7141492 20.000357,20.015369 0 0 1 43.984654,24.428571 20.000357,20.015369 0 0 0 44,24.015704 20.000357,20.015369 0 0 0 24,3.9999999 Z" style="fill:#ffffff;opacity:.1"/>
 <path d="M 24.000001,9.999998 A 15.000002,15.000002 0 0 1 39,24.999999 15.000002,15.000002 0 0 1 24.000001,40 15.000002,15.000002 0 0 1 9,24.999999 15.000002,15.000002 0 0 1 24.000001,9.999998 Z" style="opacity:.2"/>
 <path d="M 24.000001,8.999999 A 15.000002,15.000002 0 0 1 39,24 15.000002,15.000002 0 0 1 24.000001,39.000001 15.000002,15.000002 0 0 1 9,24 15.000002,15.000002 0 0 1 24.000001,8.999999 Z" style="fill:#ffffff"/>
 <path d="m20.47154 12-2.939681 10.51423-2.202846 0.771484-1.329013 5.285714 2.006138-0.70173-2.006138 6.130302h18.670986l1.329014-5h-9.720094l1.232371-4.457589 2.773437-0.970983 1.329014-5.285714-2.575335 0.901228 2.003575-7.186942z" style="fill:#4f4f4f"/>
</svg>

<svg xmlns="http://www.w3.org/2000/svg" width="48" height="48" version="1.1" viewBox="0 0 48 48">
 <path style="opacity:0.2" d="M 24,5.0000003 A 20,20 0 0 0 3.9999999,25 20,20 0 0 0 24,45 20,20 0 0 0 43.999997,25 20,20 0 0 0 24,5.0000003 Z"/>
 <path style="fill:#4f4f4f" d="M 24,4.0000003 A 20,20 0 0 0 3.9999999,24 20,20 0 0 0 24,44 20,20 0 0 0 43.999997,24 20,20 0 0 0 24,4.0000003 Z"/>
 <path style="opacity:0.1;fill:#ffffff" d="M 24,3.9999999 A 20.000357,20.015369 0 0 0 3.9999999,24.015704 20.000357,20.015369 0 0 0 4.0153459,24.305827 20.000357,20.015369 0 0 1 24,4.7141492 20.000357,20.015369 0 0 1 43.984654,24.428571 20.000357,20.015369 0 0 0 44,24.015704 20.000357,20.015369 0 0 0 24,3.9999999 Z"/>
 <path style="opacity:0.2" d="M 24.000001,9.999998 A 15.000002,15.000002 0 0 1 39,24.999999 15.000002,15.000002 0 0 1 24.000001,40 15.000002,15.000002 0 0 1 9,24.999999 15.000002,15.000002 0 0 1 24.000001,9.999998 Z"/>
 <path style="fill:#ffffff" d="M 24.000001,8.999999 A 15.000002,15.000002 0 0 1 39,24 15.000002,15.000002 0 0 1 24.000001,39.000001 15.000002,15.000002 0 0 1 9,24 15.000002,15.000002 0 0 1 24.000001,8.999999 Z"/>
 <path style="fill:#4f4f4f" d="M 20.47154,12 17.531859,22.51423 15.329013,23.285714 14,28.571428 16.006138,27.869698 14,34 h 8.571428 10.099558 L 34,29 h -9.720094 l 1.232371,-4.457589 2.773437,-0.970983 1.329014,-5.285714 -2.575335,0.901228 L 29.042968,12 Z"/>
</svg>
